X: 1
T: Egyptian Reel
C: Transcribed by Will
L: 1/8
M: 4/4
K:C ^g
efed cdBd|cAAG AB (3cBA|BEGB EGBd|cAAG ABcd|
e2 de cdBd|cAAG AB (3cBA|BEGB EGBd|1cAAG A2 z2:|2cAAG ABce||
f3d Bd=gf|e3d cdec|dcBA GABG|EGBd cAAe|
f3d Bd=gf|e3d cdec|dcBA GABE-|1EGBd cAAe :|2EGBd cAAD ||
EFGA GFEF|GAGF E3A|BcBA GABc|d2cB GFE2|
EFGA GFEF|GAGF E3E|D2 (3DDD DEFD| E2 (3EEE E2 z2 :||
